X: 456
N: http://www.mudcat.org/thread.cfmthreadid=7161
T:Mo Ghile Mear
M:4/4
K:G
D3DD2DE | G2A2B4 | c2BAB2A2|G3ED4| 
G3FE2D2| G2GAB3c| d3ed2B2 | A3GG4 ||
B2d2d2B2 | A2G2G3A | B2d2d2B2 | A2G2A3A| 
B2d2d2B2 | A2G2G2AB | c2BAB3A | G2E2D4 ||
